; generated by Slic3r 1.2.9 on 2019-07-02 at 13:28:52

; external perimeters extrusion width = 0.40mm
; perimeters extrusion width = 0.67mm
; infill extrusion width = 0.67mm
; solid infill extrusion width = 0.67mm
; top infill extrusion width = 0.67mm

M107
M190 S55 ; set bed temperature
M104 S205 ;start heating the extruder
G28 ; home all axes
G1 Z5 F5000 ; lift nozzle
M109 S205
G21 ; set units to millimeters
G90 ; use absolute coordinates
M82 ; use absolute distances for extrusion
G92 E0
G1 E-1.00000 F1800.00000
G92 E0
G1 Z0.350 F7200.000
G1 X31.468 Y48.833 F7200.000
G1 E1.00000 F1800.00000
G1 X33.659 Y47.926 E1.18538 F1622.200
G1 X35.231 Y47.749 E1.30911
G1 X84.777 Y47.749 E5.18350
G1 X87.114 Y48.146 E5.36888
G1 X89.189 Y49.293 E5.55425
G1 X90.769 Y51.061 E5.73963
G1 X91.675 Y53.251 E5.92500
G1 X91.852 Y54.824 E6.04874
G1 X91.852 Y56.824 E6.20513
G1 X91.455 Y59.161 E6.39051
G1 X89.768 Y61.839 E6.63799
G1 X87.798 Y63.799 E6.85532
G1 X87.322 Y64.231 E6.90556
G1 X85.190 Y65.998 E7.12209
G1 X83.138 Y67.184 E7.30746
G1 X80.670 Y67.626 E7.50347
G1 X39.278 Y67.596 E10.74025
G1 X36.941 Y67.197 E10.92563
G1 X34.767 Y65.967 E11.12093
G1 X32.713 Y64.264 E11.32955
G1 X32.232 Y63.826 E11.38050
G1 X30.233 Y61.831 E11.60126
G1 X28.860 Y59.899 E11.78664
G1 X28.156 Y56.824 E12.03335
G1 X28.156 Y54.824 E12.18975
G1 X28.553 Y52.487 E12.37512
G1 X29.700 Y50.412 E12.56050
G1 X31.423 Y48.873 E12.74118
G1 X31.983 Y49.150 F7200.000
G1 X35.231 Y48.286 E13.00402 F1622.200
G1 X84.777 Y48.286 E16.87841
G1 X87.021 Y48.683 E17.05656
G1 X88.992 Y49.826 E17.23470
G1 X90.451 Y51.575 E17.41284
G1 X91.315 Y54.824 E17.67569
G1 X91.315 Y56.824 E17.83208
G1 X90.918 Y59.067 E18.01022
G1 X89.389 Y61.458 E18.23213
G1 X87.419 Y63.418 E18.44946
G1 X86.979 Y63.817 E18.49588
G1 X84.847 Y65.584 E18.71241
G1 X82.867 Y66.710 E18.89055
G1 X80.671 Y67.089 E19.06483
G1 X39.278 Y67.058 E22.30161
G1 X37.035 Y66.660 E22.47975
G1 X35.110 Y65.553 E22.65337
G1 X33.056 Y63.851 E22.86200
G1 X32.611 Y63.445 E22.90907
G1 X30.613 Y61.451 E23.12984
G1 X29.305 Y59.585 E23.30798
G1 X28.694 Y56.824 E23.52917
G1 X28.694 Y54.824 E23.68557
G1 X29.090 Y52.580 E23.86371
G1 X30.233 Y50.610 E24.04185
G1 X31.937 Y49.189 E24.21531
G1 E23.21531 F1800.00000
G92 E0
G1 X80.954 Y60.149 F7200.000
G1 E1.00000 F1800.00000
G1 X81.465 Y59.587 E1.05939 F1038.208
G1 X82.137 Y59.099 E1.12438
G1 X82.393 Y58.979 E1.14647
G1 E0.14647 F1800.00000
G92 E0
G1 X76.214 Y56.518 F7200.000
G1 E1.00000 F1800.00000
G1 X76.214 Y55.130 E1.10850 F973.320
G1 X84.471 Y55.130 E1.75415
G1 X84.471 Y56.518 E1.86265
G1 X76.274 Y56.518 E2.50361
G1 X76.414 Y56.171 F7200.000
G1 X76.483 Y55.824 F7200.000
G1 X84.202 Y55.824 E3.79524 F900.000
G1 E2.79524 F1800.00000
G92 E0
G1 X43.860 Y56.518 F7200.000
G1 E1.00000 F1800.00000
G1 X35.537 Y56.518 E1.65080 F973.320
G1 X35.537 Y55.130 E1.75930
G1 X43.860 Y55.130 E2.41010
G1 X43.860 Y56.458 E2.51391
G1 X43.513 Y56.318 F7200.000
G1 X43.591 Y55.824 F7200.000
G1 X35.806 Y55.824 E3.81655 F900.000
G1 E2.81655 F1800.00000
G92 E0
G1 X37.642 Y59.012 F7200.000
G1 E1.00000 F1800.00000
G1 X37.839 Y59.104 E1.01699 F1038.208
G1 X38.517 Y59.596 E1.08249
G1 X38.955 Y60.078 E1.13342
M104 S200 ; set temperature
G1 E0.13342 F1800.00000
G92 E0
G1 Z0.550 F7200.000
G1 X80.380 Y60.425 F7200.000
G1 E1.00000 F1800.00000
G1 X80.546 Y59.772 E1.03519 F1800.000
G1 X81.030 Y59.039 E1.08111
G1 X81.733 Y58.602 E1.12430
G1 X82.665 Y58.446 E1.17368
G1 X83.042 Y58.484 E1.19349
G1 X82.931 Y58.576 E1.20104
G1 X80.562 Y60.540 E1.29240 F900.000
G1 X80.485 Y60.491 E1.29511
G1 X80.431 Y60.457 E1.29841 F1800.000
G1 X80.739 Y60.011 F7200.000
G1 X81.333 Y59.350 E1.34485 F900.000
G1 X81.869 Y58.964 E1.37936
G1 X82.281 Y58.775 E1.40303
G1 E0.40303 F1800.00000
G92 E0
G1 X84.748 Y56.131 F7200.000
G1 E1.00000 F1800.00000
G1 X75.922 Y56.131 E1.46109 F900.000
G1 X75.922 Y55.516 E1.49320
G1 X84.748 Y55.516 E1.95429
G1 X84.748 Y56.071 E1.98327
G1 X85.241 Y56.624 F7200.000
G1 X84.977 Y56.624 E1.99702 F1800.000
G1 X75.708 Y56.624 E2.27223 F900.000
G1 X75.430 Y56.624 E2.28678 F1800.000
G1 X75.430 Y55.024 E2.37037
G1 X75.708 Y55.024 E2.38493
G1 X84.977 Y55.024 E2.66014 F900.000
G1 X85.241 Y55.024 E2.67389 F1800.000
G1 X85.241 Y56.564 E2.75435
G1 E1.75435 F1800.00000
G92 E0
G1 X44.152 Y56.131 F7200.000
G1 E1.00000 F1800.00000
G1 X35.260 Y56.131 E1.46453 F900.000
G1 X35.260 Y55.516 E1.49664
G1 X44.152 Y55.516 E1.96117
G1 X44.152 Y56.071 E1.99014
G1 X44.644 Y56.624 F7200.000
G1 X44.366 Y56.624 E2.00469 F1800.000
G1 X35.031 Y56.624 E2.28186 F900.000
G1 X34.768 Y56.624 E2.29562 F1800.000
G1 X34.768 Y55.024 E2.37921
G1 X35.031 Y55.024 E2.39296
G1 X44.366 Y55.024 E2.67013 F900.000
G1 X44.644 Y55.024 E2.68468 F1800.000
G1 X44.644 Y56.564 E2.76514
G1 E1.76514 F1800.00000
G92 E0
G1 X39.474 Y60.461 F7200.000
G1 E1.00000 F1800.00000
G1 X39.397 Y60.510 E1.00270 F900.000
G1 X37.106 Y58.610 E1.09107
G1 X37.005 Y58.526 E1.09791 F1800.000
G1 X37.501 Y58.504 E1.12383
G1 X38.238 Y58.626 E1.16289
G1 X38.941 Y59.061 E1.20607
G1 X39.426 Y59.794 E1.25198
G1 X39.579 Y60.395 E1.28437
G1 X39.525 Y60.429 E1.28770
M106 S255
G1 E0.28770 F1800.00000
G92 E0
G1 Z0.750 F7200.000
G1 X80.750 Y59.453 F7200.000
G1 E1.00000 F1800.00000
G1 X81.111 Y58.823 E1.03793 F900.000
G1 X81.546 Y58.535 E1.06523
G1 X82.342 Y58.536 E1.10679
G1 X80.991 Y59.656 E1.19849
G1 X80.796 Y59.492 E1.21180
G1 X79.997 Y61.120 F7200.000
G1 X79.997 Y60.408 E1.23294 F900.000
G1 X80.193 Y59.581 E1.25817
M106 S255
G1 X80.252 Y59.331 E1.27160 F1800.000
G1 X80.741 Y58.477 E1.32302
G1 X81.413 Y58.033 E1.36508
G1 X82.344 Y58.043 E1.41373
G1 X82.491 Y58.069 E1.42153
M106 S255
G1 X83.467 Y58.244 E1.45096 F900.000
G1 X80.043 Y61.082 E1.58300
G1 X80.112 Y60.737 F7200.000
G1 E0.58300 F1800.00000
G92 E0
G1 X75.628 Y56.131 F7200.000
G1 E1.00000 F1800.00000
G1 X75.628 Y55.516 E1.03211 F900.000
G1 X85.060 Y55.516 E1.52485
G1 X85.060 Y56.131 E1.55696
G1 X75.688 Y56.131 E2.04657
G1 X75.136 Y56.624 F7200.000
G1 X75.136 Y55.024 E2.09408 F900.000
G1 X85.552 Y55.024 E2.40337
G1 X85.552 Y56.624 E2.45087
G1 X75.196 Y56.624 E2.75838
G1 X75.336 Y56.277 F7200.000
G1 E1.75838 F1800.00000
G92 E0
G1 X44.446 Y56.131 F7200.000
G1 E1.00000 F1800.00000
G1 X34.949 Y56.131 E1.49618 F900.000
G1 X34.949 Y55.516 E1.52829
G1 X44.446 Y55.516 E2.02448
G1 X44.446 Y56.071 E2.05345
G1 X44.939 Y56.624 F7200.000
G1 X34.456 Y56.624 E2.36470 F900.000
G1 X34.456 Y55.024 E2.41220
G1 X44.939 Y55.024 E2.72345
G1 X44.939 Y56.564 E2.76917
G1 X44.592 Y56.424 F7200.000
G1 E1.76917 F1800.00000
G92 E0
G1 X39.167 Y59.387 F7200.000
G1 E1.00000 F1800.00000
G1 X38.926 Y59.590 E1.01649 F900.000
G1 X37.725 Y58.595 E1.09797
G1 X38.413 Y58.574 E1.13391
G1 X38.864 Y58.864 E1.16196
G1 X39.137 Y59.335 E1.19037
G1 X39.975 Y61.101 F7200.000
G1 X36.545 Y58.257 E1.32267 F900.000
G1 X37.430 Y58.106 E1.34933
M106 S255
G1 X37.618 Y58.075 E1.35929 F1800.000
G1 X37.922 Y58.096 E1.37519
G1 X38.551 Y58.077 E1.40805
G1 X39.231 Y58.514 E1.45032
G1 X39.720 Y59.359 E1.50131
G1 X39.778 Y59.601 E1.51432
M106 S255
G1 X39.975 Y60.429 E1.53959 F900.000
G1 X39.975 Y61.041 E1.55776
G1 X39.754 Y60.767 F7200.000
G1 E0.55776 F1800.00000
G92 E0
G1 Z0.950 F7200.000
G1 X80.181 Y60.112 F7200.000
G1 E1.00000 F1800.00000
G1 X80.434 Y58.872 E1.06608 F900.000
G1 X80.804 Y57.956 E1.11771
M106 S255
G1 X80.870 Y57.793 E1.12692 F1800.000
G1 X81.027 Y57.024 E1.16792
M106 S255
G1 X81.097 Y56.682 E1.18613 F900.000
G1 X81.382 Y56.662 E1.20107
G1 X81.512 Y57.024 E1.22116
M106 S255
G1 X81.722 Y57.608 E1.25358 F1800.000
G1 X81.764 Y57.643 E1.25645
M106 S255
G1 X82.313 Y58.092 E1.29349 F900.000
G1 X82.824 Y58.248 E1.32144
G1 X80.410 Y60.249 E1.48525
G1 X80.233 Y60.143 E1.49606
G1 E0.49606 F1800.00000
G92 E0
G1 X75.388 Y56.131 F7200.000
G1 E1.00000 F1800.00000
G1 X75.388 Y55.516 E1.03211 F900.000
G1 X85.290 Y55.516 E1.54940
G1 X85.290 Y56.131 E1.58151
G1 X75.448 Y56.131 E2.09567
G1 X80.606 Y56.624 F7200.000
G1 X74.896 Y56.624 E2.26521 F900.000
G1 X74.896 Y55.024 E2.31271
G1 X85.782 Y55.024 E2.63595
G1 X85.782 Y56.624 E2.68346
G1 X81.892 Y56.624 E2.79898
G1 X82.035 Y57.024 E2.81159
M106 S255
G1 X82.139 Y57.313 E2.82765 F1800.000
G1 X82.549 Y57.649 E2.85536
G1 X82.743 Y57.708 E2.86590
M106 S255
G1 X83.843 Y58.043 E2.90006 F900.000
G1 X79.700 Y61.477 E3.05983
G1 X79.700 Y60.005 E3.10355
G1 X79.817 Y59.430 E3.12095
M106 S255
G1 X79.960 Y58.730 E3.15831 F1800.000
G1 X80.396 Y57.650 E3.21916
G1 X80.524 Y57.024 E3.25254
M106 S255
G1 X80.594 Y56.683 E3.26289 F900.000
G1 X80.633 Y56.225 F7200.000
G1 X81.726 Y58.018 F7200.000
G1 X80.766 Y59.331 E3.43862 F900.000
G1 E2.43862 F1800.00000
G92 E0
G1 X39.781 Y60.084 F7200.000
G1 E1.00000 F1800.00000
G1 X39.552 Y60.221 E1.01396 F900.000
G1 X37.190 Y58.263 E1.17420
G1 X37.715 Y58.106 E1.20283
G1 X38.227 Y57.686 E1.23740
M106 S255
G1 X38.314 Y57.615 E1.24330 F1800.000
G1 X38.526 Y57.024 E1.27609
M106 S255
G1 X38.556 Y56.940 E1.28073 F900.000
G1 X38.827 Y56.946 E1.29490
G1 X38.851 Y57.024 E1.29917
M106 S255
G1 X39.153 Y57.988 E1.35197 F1800.000
M106 S255
G1 X39.244 Y58.280 E1.36794 F900.000
G1 X39.542 Y58.925 E1.40504
G1 X39.768 Y60.025 E1.46373
G1 E0.46373 F1800.00000
G92 E0
G1 X44.686 Y56.131 F7200.000
G1 E1.00000 F1800.00000
G1 X34.719 Y56.131 E1.52073 F900.000
G1 X34.719 Y55.516 E1.55284
G1 X44.686 Y55.516 E2.07357
G1 X44.686 Y56.071 E2.10254
G1 X39.242 Y56.624 F7200.000
G1 X39.367 Y57.024 E2.11499 F900.000
M106 S255
G1 X39.705 Y58.102 E2.17403 F1800.000
G1 X40.013 Y58.769 E2.21243
G1 X40.155 Y59.459 E2.24920
M106 S255
G1 X40.272 Y60.026 E2.26640 F900.000
G1 X40.272 Y61.459 E2.30892
G1 X36.167 Y58.055 E2.46724
G1 X37.250 Y57.731 E2.50078
M106 S255
G1 X37.479 Y57.663 E2.51330 F1800.000
G1 X37.896 Y57.320 E2.54148
G1 X38.002 Y57.024 E2.55794
M106 S255
G1 X38.146 Y56.624 E2.57055 F900.000
G1 X34.226 Y56.624 E2.68693
G1 X34.226 Y55.024 E2.73444
G1 X45.178 Y55.024 E3.05963
G1 X45.178 Y56.624 E3.10714
G1 X39.302 Y56.624 E3.28161
G1 X38.850 Y56.704 F7200.000
G1 X38.276 Y58.052 F7200.000
G1 X38.612 Y58.550 E3.34646 F900.000
G1 X39.190 Y59.302 E3.44899
G1 E2.44899 F1800.00000
G92 E0
G1 Z1.150 F7200.000
G1 X80.363 Y56.131 F7200.000
G1 E1.00000 F1800.00000
G1 X75.181 Y56.131 E1.27074 F900.000
G1 X75.181 Y55.516 E1.30285
G1 X85.495 Y55.516 E1.84166
G1 X85.495 Y56.131 E1.87377
G1 X82.120 Y56.131 E2.05010
G1 X82.433 Y57.418 E2.11931
G1 X83.103 Y58.129 E2.17035
G1 X79.897 Y60.787 E2.38792
G1 X79.897 Y59.521 E2.45404
G1 X80.355 Y56.191 E2.62968
G1 X79.798 Y56.624 F7200.000
G1 X74.689 Y56.624 E2.78139 F900.000
G1 X74.689 Y55.024 E2.82890
G1 X85.987 Y55.024 E3.16437
G1 X85.987 Y56.624 E3.21188
G1 X82.746 Y56.624 E3.30810
G1 X82.844 Y57.024 E3.32032
M106 S255
G1 X82.880 Y57.175 E3.32847 F1800.000
G1 X83.088 Y57.395 E3.34427
M106 S255
G1 X83.229 Y57.544 E3.35036 F900.000
G1 X84.160 Y57.893 E3.37987
G1 X79.545 Y61.718 E3.55784
G1 X79.404 Y60.928 E3.58168
G1 X79.404 Y59.487 E3.62445
G1 X79.418 Y59.389 E3.62739
M106 S255
G1 X79.743 Y57.024 E3.75214 F1800.000
M106 S255
G1 X79.790 Y56.683 E3.76235 F900.000
G1 X79.817 Y56.224 F7200.000
G1 X81.686 Y56.242 F7200.000
G1 X81.372 Y55.929 E3.78617 F1063.168
G1 X80.750 Y56.219 E3.82303
G1 X81.979 Y57.449 E3.91635
G1 X82.107 Y58.489 E3.97263
G1 X80.640 Y57.022 E4.08404
G1 X80.529 Y57.824 E4.12752
G1 X81.608 Y58.903 E4.20942
G1 X81.109 Y59.317 E4.24423
G1 X80.419 Y58.627 E4.29662
G1 X80.309 Y59.430 E4.34013
G1 X80.610 Y59.731 E4.36296
G1 E3.36296 F1800.00000
G92 E0
G1 X39.579 Y56.131 F7200.000
G1 E1.00000 F1800.00000
G1 X40.076 Y59.557 E1.18087 F900.000
G1 X40.076 Y60.768 E1.24410
G1 X36.907 Y58.140 E1.45917
G1 X37.579 Y57.427 E1.51040
G1 X37.918 Y56.131 E1.58035
G1 X34.514 Y56.131 E1.75818
G1 X34.514 Y55.516 E1.79029
G1 X44.893 Y55.516 E2.33254
G1 X44.893 Y56.131 E2.36465
G1 X39.639 Y56.131 E2.63911
G1 X40.149 Y56.624 F7200.000
G1 X40.207 Y57.024 E2.65112 F900.000
M106 S255
G1 X40.550 Y59.392 E2.77616 F1800.000
M106 S255
G1 X40.568 Y59.522 E2.78004 F900.000
G1 X40.568 Y60.949 E2.82241
G1 X40.434 Y61.705 E2.84520
G1 X35.846 Y57.900 E3.02217
G1 X36.783 Y57.553 E3.05185
G1 X36.914 Y57.414 E3.05751
M106 S255
G1 X37.134 Y57.180 E3.07432 F1800.000
G1 X37.175 Y57.024 E3.08277
M106 S255
G1 X37.280 Y56.624 E3.09505 F900.000
G1 X34.021 Y56.624 E3.19180
G1 X34.021 Y55.024 E3.23931
G1 X45.385 Y55.024 E3.57673
G1 X45.385 Y56.624 E3.62424
G1 X40.209 Y56.624 E3.77794
G1 X39.750 Y56.662 F7200.000
G1 X39.158 Y56.239 F7200.000
G1 X38.848 Y55.929 E3.80612 F1063.168
G1 X38.240 Y56.413 E3.85603
G1 X39.343 Y57.516 E3.95623
G1 X39.528 Y58.793 E4.03911
G1 X38.013 Y57.279 E4.17665
G1 X37.584 Y57.942 E4.22736
G1 X38.017 Y58.375 E4.26667
G1 E3.26667 F1800.00000
G92 E0
G1 Z1.350 F7200.000
G1 X79.815 Y56.131 F7200.000
G1 E1.00000 F1800.00000
G1 X75.026 Y56.131 E1.25022 F900.000
G1 X75.026 Y55.516 E1.28233
G1 X85.655 Y55.516 E1.83764
G1 X85.655 Y56.131 E1.86975
G1 X82.595 Y56.131 E2.02961
G1 X82.893 Y57.357 E2.09552
G1 X83.453 Y57.951 E2.13817
G1 X79.711 Y61.052 E2.39209
G1 X79.600 Y60.479 E2.42258
G1 X79.600 Y58.791 E2.51080
G1 X79.810 Y56.191 E2.64706
G1 X79.281 Y56.624 F7200.000
G1 X74.533 Y56.624 E2.78804 F900.000
G1 X74.533 Y55.024 E2.83555
G1 X86.147 Y55.024 E3.18039
G1 X86.147 Y56.624 E3.22789
G1 X83.222 Y56.624 E3.31476
G1 X83.319 Y57.024 E3.32699
M106 S255
G1 X83.330 Y57.068 E3.32938 F1800.000
M106 S255
G1 X83.341 Y57.114 E3.33077 F900.000
G1 X83.616 Y57.405 E3.34266
G1 X84.430 Y57.781 E3.36929
G1 X79.385 Y61.962 E3.56384
G1 X79.108 Y60.526 E3.60726
G1 X79.120 Y58.617 E3.66396
M106 S255
G1 X79.249 Y57.024 E3.74746 F1800.000
M106 S255
G1 X79.276 Y56.684 E3.75759 F900.000
G1 X79.292 Y56.224 F7200.000
G1 X80.540 Y55.929 F7200.000
G1 X80.231 Y56.237 E3.78362 F1180.200
G1 X80.142 Y57.341 E3.84971
G1 X81.555 Y55.929 E3.96891
G1 X82.232 Y56.266 E4.01407
G1 X80.053 Y58.445 E4.19795
G1 X80.013 Y59.500 E4.26097
G1 X82.430 Y57.083 E4.46501
G1 X82.775 Y57.753 E4.50998
G1 X82.343 Y58.185 E4.54649
G1 E3.54649 F1800.00000
G92 E0
G1 X60.384 Y56.131 F7200.000
G1 E1.00000 F1800.00000
M106 S255
G1 X59.690 Y56.131 E1.03623 F1800.000
G1 X59.690 Y55.516 E1.06834
G1 X60.384 Y55.516 E1.10456
G1 X60.384 Y56.071 E1.13354
M106 S255
G1 X60.876 Y56.624 F7200.000
M106 S255
G1 X59.198 Y56.624 E1.22125 F1800.000
G1 X59.198 Y55.024 E1.30484
G1 X60.876 Y55.024 E1.39255
G1 X60.876 Y56.564 E1.47301
M106 S255
G1 E0.47301 F1800.00000
G92 E0
G1 X40.149 Y56.131 F7200.000
G1 E1.00000 F1800.00000
G1 X40.372 Y58.836 E1.14178 F900.000
G1 X40.372 Y60.500 E1.22876
G1 X40.269 Y61.040 E1.25745
G1 X36.557 Y57.962 E1.50937
G1 X37.124 Y57.360 E1.55255
G1 X37.423 Y56.131 E1.61865
G1 X34.354 Y56.131 E1.77899
G1 X34.354 Y55.516 E1.81110
G1 X45.048 Y55.516 E2.36984
G1 X45.048 Y56.131 E2.40195
G1 X40.209 Y56.131 E2.65480
G1 X40.684 Y56.624 F7200.000
G1 X40.717 Y57.024 E2.66671 F900.000
M106 S255
G1 X40.858 Y58.732 E2.75628 F1800.000
M106 S255
G1 X40.865 Y60.547 E2.81016 F900.000
G1 X40.596 Y61.951 E2.85261
G1 X35.575 Y57.788 E3.04626
G1 X36.397 Y57.414 E3.07306
G1 X36.676 Y57.117 E3.08515
G1 X36.687 Y57.071 E3.08656
M106 S255
G1 X36.699 Y57.024 E3.08912 F1800.000
M106 S255
G1 X36.796 Y56.624 E3.10134 F900.000
G1 X33.861 Y56.624 E3.18848
G1 X33.861 Y55.024 E3.23599
G1 X45.541 Y55.024 E3.58279
G1 X45.541 Y56.624 E3.63029
G1 X40.744 Y56.624 E3.77273
G1 X40.285 Y56.646 F7200.000
G1 X37.856 Y56.242 F7200.000
G1 X38.170 Y55.929 E3.79721 F1180.200
G1 X39.108 Y55.929 E3.84899
G1 X37.555 Y57.482 E3.97018
G1 X37.607 Y58.368 E4.01915
G1 X39.753 Y56.222 E4.18659
G1 X39.825 Y57.089 E4.23458
G1 X38.120 Y58.793 E4.36758
G1 X38.633 Y59.219 E4.40436
G1 X39.897 Y57.955 E4.50292
G1 X39.960 Y58.830 E4.55132
G1 X39.146 Y59.644 E4.61482
G1 X39.960 Y59.769 E4.66024
G1 X39.659 Y60.069 E4.68371
G1 E3.68371 F1800.00000
G92 E0
G1 Z1.550 F7200.000
G1 X80.251 Y60.300 F7200.000
G1 E1.00000 F1800.00000
G1 X80.425 Y59.586 E1.02182 F900.000
G1 X80.899 Y58.834 E1.04820
G1 X81.609 Y58.397 E1.07298
G1 X82.252 Y58.331 E1.09216
G1 X82.760 Y58.313 E1.10725
G1 X82.862 Y58.581 E1.11575
G1 X80.557 Y60.491 E1.20466
G1 X80.302 Y60.332 E1.21360
G1 X79.874 Y60.164 F7200.000
G1 X79.651 Y60.506 F7200.000
G1 X80.138 Y60.810 E1.24362 F900.000
