; generated by Slic3r 1.2.9 on 2019-07-02 at 13:37:54

; external perimeters extrusion width = 0.40mm
; perimeters extrusion width = 0.67mm
; infill extrusion width = 0.67mm
; solid infill extrusion width = 0.67mm
; top infill extrusion width = 0.67mm

M107
M190 S55 ; set bed temperature
M104 S205 ;start heating the extruder
G28 ; home all axes
G1 Z5 F5000 ; lift nozzle
M109 S205
G21 ; set units to millimeters
G90 ; use absolute coordinates
M82 ; use absolute distances for extrusion
G92 E0
G1 E-1.00000 F1800.00000
G92 E0
G1 Z0.350 F7200.000
G1 X26.310 Y54.484 F7200.000
G1 E1.00000 F1800.00000
G1 X29.254 Y53.347 E1.24677 F1502.609
G1 X30.240 Y53.205 E1.32469
G1 X31.237 Y53.132 E1.40285
G1 X88.692 Y52.997 E5.89571
G1 X89.693 Y53.065 E5.97417
G1 X90.679 Y53.204 E6.05200
G1 X92.938 Y53.922 E6.23737
G1 X95.362 Y55.975 E6.48572
G1 X95.916 Y56.717 E6.55814
G1 X96.966 Y58.731 E6.73581
G1 X97.371 Y59.956 E6.83664
G1 X97.708 Y62.712 E7.05375
G1 X97.632 Y63.712 E7.13217
G1 X97.059 Y66.012 E7.31755
G1 X95.758 Y67.994 E7.50293
G1 X93.876 Y69.435 E7.68830
G1 X90.578 Y70.251 E7.95400
G1 X29.510 Y70.251 E12.72928
G1 X27.173 Y69.854 E12.91465
G1 X25.099 Y68.707 E13.10003
G1 X23.519 Y66.939 E13.28540
G1 X22.613 Y64.749 E13.47078
G1 X22.436 Y63.081 E13.60194
G1 X22.450 Y62.081 E13.68014
G1 X22.640 Y60.544 E13.80120
G1 X22.929 Y59.327 E13.89902
G1 X24.140 Y56.731 E14.12306
G1 X24.595 Y56.121 E14.18254
G1 X26.267 Y54.526 E14.36322
G1 X26.685 Y54.881 F7200.000
G1 X29.331 Y53.879 E14.58447 F1502.609
G1 X30.317 Y53.736 E14.66239
G1 X31.238 Y53.669 E14.73461
G1 X88.693 Y53.534 E19.22747
G1 X89.618 Y53.598 E19.29997
G1 X90.604 Y53.736 E19.37780
G1 X92.770 Y54.441 E19.55594
G1 X94.931 Y56.297 E19.77864
G1 X95.485 Y57.038 E19.85106
G1 X96.456 Y58.900 E20.01524
G1 X96.861 Y60.124 E20.11608
G1 X97.172 Y62.671 E20.31669
G1 X97.096 Y63.671 E20.39511
G1 X96.531 Y65.878 E20.57326
G1 X95.242 Y67.757 E20.75140
G1 X93.387 Y69.079 E20.92955
G1 X90.578 Y69.714 E21.15477
G1 X29.510 Y69.714 E25.93005
G1 X27.267 Y69.317 E26.10819
G1 X25.296 Y68.174 E26.28633
G1 X23.837 Y66.424 E26.46448
G1 X23.067 Y64.280 E26.64262
G1 X22.974 Y63.088 E26.73617
G1 X22.987 Y62.088 E26.81437
G1 X23.163 Y60.668 E26.92624
G1 X23.451 Y59.451 E27.02405
G1 X24.571 Y57.052 E27.23107
G1 X25.026 Y56.442 E27.29056
G1 X26.641 Y54.922 E27.46401
G1 E26.46401 F1800.00000
G92 E0
G1 X88.748 Y62.333 F7200.000
G1 E1.00000 F1800.00000
G1 X88.908 Y61.472 E1.06848 F901.565
G1 X89.193 Y60.948 E1.11509
G1 X89.479 Y61.331 E1.15247
G1 X89.760 Y62.333 E1.23382
G1 X88.808 Y62.333 E1.30826
G1 X88.278 Y62.870 F7200.000
G1 X88.227 Y62.193 E1.36135 F901.565
G1 X88.395 Y61.290 E1.43320
G1 X88.876 Y60.404 E1.51200
G1 X89.525 Y60.495 E1.56324
G1 X89.969 Y61.089 E1.62122
G1 X90.331 Y62.380 E1.72602
G1 X90.294 Y62.870 E1.76445
G1 X88.338 Y62.870 E1.91736
G1 X88.461 Y62.514 F7200.000
G1 E0.91736 F1800.00000
G92 E0
G1 X31.143 Y62.333 F7200.000
G1 E1.00000 F1800.00000
G1 X30.354 Y62.333 E1.06167 F901.565
G1 X30.593 Y61.323 E1.14277
G1 X30.771 Y61.084 E1.16607
G1 X30.977 Y61.462 E1.19966
G1 X31.131 Y62.274 E1.26429
G1 X31.618 Y62.870 F7200.000
G1 X29.821 Y62.870 E1.40482 F901.565
G1 X29.830 Y62.214 E1.45612
G1 X30.096 Y61.091 E1.54635
G1 X30.437 Y60.634 E1.59094
G1 X31.087 Y60.540 E1.64228
G1 X31.489 Y61.278 E1.70804
G1 X31.663 Y62.195 E1.78099
G1 X31.622 Y62.810 E1.82921
G1 X31.276 Y62.662 F7200.000
M104 S200 ; set temperature
G1 E0.82921 F1800.00000
G92 E0
G1 Z0.550 F7200.000
G1 X87.854 Y62.483 F7200.000
G1 E1.00000 F1800.00000
G1 X87.850 Y61.571 E1.04766 F900.000
G1 X87.925 Y61.095 E1.07283
G1 X88.016 Y60.514 E1.10356 F1800.000
G1 X88.194 Y59.837 E1.14011
G1 X88.616 Y59.400 E1.17187
G1 X89.119 Y59.363 E1.19824
G1 X90.069 Y60.087 E1.26064
G1 X90.413 Y60.837 E1.30374
G1 X90.442 Y60.902 E1.30744 F900.000
G1 X90.526 Y61.083 E1.31787 F1800.000
G1 X90.601 Y61.466 E1.33826
G1 X90.750 Y62.231 E1.37896 F900.000
G1 X90.741 Y62.483 E1.39217
G1 X87.914 Y62.483 E1.53989
G1 X87.363 Y62.976 F7200.000
G1 X87.358 Y61.534 E1.61525 F1800.000
G1 X87.533 Y60.413 E1.67450
G1 X87.750 Y59.588 E1.71909
G1 X88.392 Y58.923 E1.76740
G1 X89.269 Y58.859 E1.81336
G1 X90.466 Y59.770 E1.89195
G1 X90.998 Y60.931 E1.95866
G1 X91.245 Y62.192 E2.02578
G1 X91.216 Y62.976 E2.06679
G1 X90.793 Y62.976 E2.08886
G1 X87.779 Y62.976 E2.17837 F900.000
G1 X87.423 Y62.976 E2.19697 F1800.000
G1 E1.19697 F1800.00000
G92 E0
G1 X90.142 Y62.144 F7200.000
G1 E1.00000 F1800.00000
G1 X90.304 Y61.864 E1.01861 F3600.000
G1 X90.167 Y61.162 E1.05972
G1 X89.600 Y62.144 E1.12492
G1 X89.057 Y62.144 E1.15612
G1 X89.919 Y60.651 E1.25529
G1 X89.652 Y60.175 E1.28671
G1 X88.515 Y62.144 E1.41751
G1 X88.248 Y61.667 E1.44896
G1 X89.275 Y59.888 E1.56714
G1 X88.731 Y59.890 E1.59842
G1 X88.517 Y60.262 E1.62308
G1 E0.62308 F1800.00000
G92 E0
G1 X32.079 Y62.483 F7200.000
G1 E1.00000 F1800.00000
G1 X29.333 Y62.483 E1.14350 F900.000
G1 X29.335 Y62.230 E1.15673
G1 X29.384 Y61.899 E1.17420
G1 X29.507 Y61.072 E1.21792 F1800.000
G1 X29.952 Y60.099 E1.27381
G1 X30.891 Y59.406 E1.33478
G1 X31.336 Y59.448 E1.35811
G1 X31.755 Y59.895 E1.39015
G1 X32.066 Y61.377 E1.46925
G1 X32.069 Y61.616 E1.48175
G1 X32.079 Y62.423 E1.52394 F900.000
G1 X32.578 Y62.976 F7200.000
G1 X32.118 Y62.976 E1.54797 F1800.000
G1 X29.313 Y62.976 E1.63126 F900.000
G1 X28.836 Y62.976 E1.65620 F1800.000
G1 X28.843 Y62.192 E1.69718
G1 X29.030 Y60.930 E1.76382
G1 X29.557 Y59.778 E1.83001
G1 X30.750 Y58.898 E1.90745
G1 X31.567 Y58.974 E1.95034
G1 X32.209 Y59.659 E1.99936
G1 X32.558 Y61.323 E2.08818
G1 X32.577 Y62.916 E2.17144
G1 X31.482 Y62.123 F7200.000
G1 X31.712 Y61.892 E2.19357 F3600.000
G1 X31.680 Y61.209 E2.23995
G1 X30.766 Y62.123 E2.32758
G1 X30.051 Y62.123 E2.37611
G1 X31.556 Y60.618 E2.52049
G1 X31.428 Y60.030 E2.56127
G1 X29.800 Y61.658 E2.71747
G1 X30.198 Y60.545 F7200.000
G1 X30.524 Y60.219 E2.74877 F3600.000
M106 S255
G1 E1.74877 F1800.00000
G92 E0
G1 Z0.750 F7200.000
G1 X87.420 Y62.483 F7200.000
G1 E1.00000 F1800.00000
G1 X87.425 Y61.243 E1.06482 F900.000
G1 X87.502 Y60.300 E1.11423
G1 X87.881 Y59.089 E1.18053
G1 X88.313 Y58.675 E1.21178
G1 X88.881 Y58.617 E1.24163
G1 X89.782 Y59.012 E1.29303
G1 X90.520 Y59.924 E1.35434
G1 X91.020 Y61.078 E1.42005
G1 X91.166 Y62.216 E1.48000
G1 X91.163 Y62.483 E1.49395
G1 X87.480 Y62.483 E1.68637
G1 X86.925 Y62.976 F7200.000
M106 S255
G1 X86.933 Y61.222 E1.77804 F1800.000
G1 X87.015 Y60.205 E1.83131
G1 X87.449 Y58.821 E1.90709
G1 X88.094 Y58.202 E1.95381
G1 X88.959 Y58.114 E1.99924
G1 X90.090 Y58.609 E2.06376
G1 X90.945 Y59.667 E2.13482
G1 X91.500 Y60.946 E2.20768
G1 X91.659 Y62.188 E2.27307
G1 X91.650 Y62.976 E2.31426
G1 X91.616 Y62.976 E2.31603
M106 S255
G1 X86.985 Y62.976 E2.45353 F900.000
G1 X87.126 Y62.630 F7200.000
G1 X87.835 Y61.765 F7200.000
G1 X88.141 Y62.071 E2.47828 F900.000
G1 X89.112 Y62.071 E2.53375
G1 X87.862 Y60.821 E2.63469
G1 X87.997 Y59.985 E2.68309
G1 X90.084 Y62.071 E2.85160
G1 X90.664 Y61.680 E2.89156
G1 X88.245 Y59.262 E3.08684
G1 X89.256 Y59.301 E3.14461
G1 X89.696 Y59.741 E3.18012
G1 E2.18012 F1800.00000
G92 E0
G1 X32.538 Y62.483 F7200.000
G1 E1.00000 F1800.00000
G1 X28.868 Y62.483 E1.19173 F900.000
G1 X28.864 Y62.059 E1.21391
G1 X29.002 Y61.047 E1.26726
G1 X29.500 Y59.939 E1.33072
G1 X30.255 Y59.031 E1.39240
G1 X31.084 Y58.671 E1.43967
G1 X31.622 Y58.721 E1.46789
G1 X32.083 Y59.147 E1.50068
G1 X32.461 Y60.370 E1.56758
G1 X32.537 Y61.392 E1.62112
G1 X32.538 Y62.423 E1.67499
G1 X32.978 Y62.976 F7200.000
G1 X28.436 Y62.976 E1.80986 F900.000
M106 S255
G1 X28.381 Y62.976 E1.81273 F1800.000
G1 X28.371 Y62.028 E1.86227
G1 X28.524 Y60.910 E1.92121
G1 X29.078 Y59.676 E1.99191
G1 X29.951 Y58.626 E2.06323
G1 X31.004 Y58.169 E2.12324
G1 X31.834 Y58.246 E2.16679
G1 X32.515 Y58.875 E2.21521
G1 X32.949 Y60.278 E2.29195
G1 X33.029 Y61.374 E2.34934
G1 X33.032 Y62.970 E2.43271
M106 S255
G1 E1.43271 F1800.00000
G92 E0
G1 X29.607 Y62.071 F7200.000
G1 E1.00000 F1800.00000
G1 X29.303 Y61.767 E1.02324 F900.000
G1 X29.436 Y60.982 E1.06626
G1 X30.526 Y62.071 E1.14948
G1 X31.444 Y62.071 E1.19909
G1 X29.721 Y60.348 E1.33074
G1 X30.086 Y59.794 E1.36655
G1 X32.125 Y61.833 E1.52231
G1 X32.074 Y60.864 E1.57473
G1 X30.527 Y59.317 E1.69291
G1 X31.241 Y59.113 E1.73305
G1 X31.752 Y59.623 E1.77201
G1 E0.77201 F1800.00000
G92 E0
G1 Z0.950 F7200.000
G1 X32.960 Y61.869 F7200.000
G1 E1.00000 F1800.00000
G1 X33.430 Y61.869 E1.02456 F1084.535
M106 S255
G1 X38.149 Y61.869 E1.27111 F1800.000
G1 X38.149 Y62.483 E1.30322
G1 X33.431 Y62.483 E1.54971
M106 S255
G1 X27.976 Y62.483 E1.83472 F1084.535
M106 S255
G1 X25.546 Y62.483 E1.96163 F1800.000
G1 X25.546 Y61.869 E1.99374
G1 X27.989 Y61.869 E2.12135
M106 S255
G1 X28.407 Y61.869 E2.14317 F1084.535
G1 X29.089 Y59.828 E2.25559
G1 X29.844 Y58.827 E2.32110
G1 X30.420 Y58.363 E2.35971
G1 X30.928 Y58.142 E2.38869
G1 X31.294 Y58.051 E2.40838
G1 X31.947 Y58.164 E2.44298
G1 X32.402 Y58.558 E2.47445
G1 X32.761 Y59.497 E2.52695
G1 X32.955 Y61.809 E2.64819
G1 E1.64819 F1800.00000
G92 E0
G1 X87.002 Y61.869 F7200.000
G1 E1.00000 F1800.00000
G1 X87.203 Y59.447 E1.12697 F1084.535
G1 X87.561 Y58.521 E1.17885
G1 X88.017 Y58.124 E1.21042
G1 X88.675 Y58.010 E1.24529
G1 X89.562 Y58.323 E1.29444
G1 X90.175 Y58.816 E1.33557
G1 X90.922 Y59.823 E1.40106
G1 X91.616 Y61.869 E1.51392
G1 X92.022 Y61.869 E1.53508
M106 S255
G1 X95.056 Y61.869 E1.69363 F1800.000
G1 X95.056 Y62.483 E1.72574
G1 X92.056 Y62.483 E1.88250
M106 S255
G1 X86.527 Y62.483 E2.17134 F1084.535
M106 S255
G1 X84.092 Y62.483 E2.29856 F1800.000
G1 X84.092 Y61.869 E2.33067
G1 X86.530 Y61.869 E2.45802
M106 S255
G1 X86.942 Y61.869 E2.47954 F1084.535
G1 X86.548 Y61.376 F7200.000
G1 X86.664 Y59.989 E2.52088 F1156.837
M106 S255
G1 X86.718 Y59.335 E2.55512 F3600.000
G1 X87.146 Y58.229 E2.61710
G1 X87.798 Y57.662 E2.66224
G1 X88.687 Y57.508 E2.70939
G1 X88.839 Y57.546 E2.71755
G1 X89.805 Y57.886 E2.77110
G1 X90.245 Y58.240 E2.80061
M106 S255
G1 X90.421 Y58.381 E2.80729 F1156.837
M106 S255
G1 X90.534 Y58.472 E2.81487 F3600.000
G1 X90.970 Y59.061 E2.85317
M106 S255
G1 X91.328 Y59.544 E2.87101 F1156.837
M106 S255
G1 X91.363 Y59.592 E2.87412 F3600.000
G1 X91.417 Y59.749 E2.88278
M106 S255
G1 X91.952 Y61.324 E2.93216 F1156.837
M106 S255
G1 X91.969 Y61.376 E2.93506 F3600.000
G1 X95.549 Y61.376 E3.12207
G1 X95.549 Y62.376 E3.17432
G1 X102.637 Y62.376 E3.54461
G1 X102.637 Y62.976 E3.57596
G1 X92.050 Y62.976 E4.12906
M106 S255
G1 X86.525 Y62.976 E4.29310 F1156.837
M106 S255
G1 X33.432 Y62.976 E7.06696 F3600.000
M106 S255
G1 X27.981 Y62.976 E7.22881 F1156.837
M106 S255
G1 X17.363 Y62.976 E7.78352 F3600.000
G1 X17.363 Y62.376 E7.81486
G1 X25.054 Y62.376 E8.21665
G1 X25.054 Y61.376 E8.26890
G1 X28.052 Y61.376 E8.42553
G1 X28.059 Y61.354 E8.42674
M106 S255
G1 X28.567 Y59.836 E8.47428 F1156.837
M106 S255
G1 X28.648 Y59.596 E8.48751 F3600.000
G1 X28.715 Y59.506 E8.49339
M106 S255
G1 X28.878 Y59.290 E8.50143 F1156.837
M106 S255
G1 X29.488 Y58.482 E8.55430 F3600.000
G1 X29.679 Y58.327 E8.56714
M106 S255
G1 X29.731 Y58.286 E8.56912 F1156.837
M106 S255
G1 X30.162 Y57.938 E8.59807 F3600.000
G1 X30.770 Y57.674 E8.63268
G1 X31.276 Y57.548 E8.65993
G1 X32.166 Y57.701 E8.70710
G1 X32.818 Y58.267 E8.75220
G1 X33.246 Y59.386 E8.81480
G1 X33.304 Y60.073 E8.85081
M106 S255
G1 X33.413 Y61.376 E8.88965 F1156.837
G1 X33.429 Y61.376 E8.89013
M106 S255
G1 X38.642 Y61.376 E9.16245 F3600.000
G1 X38.642 Y62.376 E9.21470
G1 X83.599 Y62.376 E11.56352
G1 X83.599 Y61.376 E11.61576
G1 X86.488 Y61.376 E11.76669
M106 S255
G1 X83.846 Y62.676 F7200.000
G1 X38.395 Y62.676 E14.14124 F900.000
G1 E13.14124 F1800.00000
G92 E0
G1 X32.243 Y62.071 F7200.000
G1 E1.00000 F1800.00000
G1 X32.548 Y61.766 E1.02450 F1988.313
G1 X32.474 Y60.875 E1.07529
G1 X31.277 Y62.071 E1.17137
G1 X30.311 Y62.071 E1.22622
G1 X32.399 Y59.984 E1.39387
G1 X32.239 Y59.178 E1.44054
G1 X29.346 Y62.071 E1.67293
G1 X29.049 Y61.402 E1.71452
G1 X31.875 Y58.576 E1.94143
G1 X30.398 Y59.087 F7200.000
G1 X29.994 Y59.491 E1.97390 F1988.313
G1 E0.97390 F1800.00000
G92 E0
G1 X25.300 Y62.676 F7200.000
G1 E1.00000 F1800.00000
G1 X17.610 Y62.676 E1.40179 F900.000
G1 E0.40179 F1800.00000
G92 E0
G1 X88.373 Y58.520 F7200.000
G1 E1.00000 F1800.00000
G1 X87.870 Y59.024 E1.04230 F1988.313
G1 X87.553 Y60.350 E1.12330
G1 X89.282 Y58.622 E1.26847
G1 X89.866 Y59.047 E1.31141
G1 X87.462 Y61.452 E1.51340
G1 X87.852 Y62.071 E1.55689
G1 X90.315 Y59.608 E1.76376
G1 X90.673 Y60.261 E1.80795
G1 X88.862 Y62.071 E1.96001
G1 X89.873 Y62.071 E2.02000
G1 X90.929 Y61.015 E2.10872
G1 X91.185 Y61.769 E2.15601
G1 X90.883 Y62.071 E2.18141
G1 E1.18141 F1800.00000
G92 E0
G1 X95.303 Y62.676 F7200.000
G1 E1.00000 F1800.00000
G1 X102.390 Y62.676 E1.37030 F900.000
G1 E0.37030 F1800.00000
G92 E0
G1 Z1.150 F7200.000
G1 X86.794 Y61.869 F7200.000
G1 E1.00000 F1800.00000
G1 X86.752 Y60.613 E1.06566 F1440.806
G1 X86.905 Y58.827 E1.15929
G1 X87.252 Y58.019 E1.20525
G1 X87.725 Y57.624 E1.23744
G1 X88.388 Y57.480 E1.27288
G1 X89.355 Y57.719 E1.32493
G1 X89.538 Y57.818 E1.33582
G1 X90.583 Y58.688 E1.40686
G1 X91.230 Y59.747 E1.47168
G1 X91.913 Y61.869 E1.58812
G1 X95.939 Y61.869 E1.79844
G1 X95.939 Y62.483 E1.83055
G1 X90.839 Y62.483 E2.09698
G1 X90.839 Y61.483 E2.14923
G1 X90.176 Y61.483 E2.18387
G1 X88.933 Y59.465 E2.30771
G1 X88.308 Y61.483 E2.41807
G1 X87.709 Y61.483 E2.44936
G1 X87.709 Y62.483 E2.50160
G1 X83.951 Y62.483 E2.69795
G1 X83.951 Y61.869 E2.73006
G1 X86.734 Y61.869 E2.87543
G1 E1.87543 F1800.00000
G92 E0
G1 X33.239 Y61.869 F7200.000
G1 E1.00000 F1800.00000
G1 X38.813 Y61.869 E1.29121 F1440.806
G1 X38.813 Y62.483 E1.32332
G1 X31.787 Y62.483 E1.69037
G1 X31.722 Y60.847 E1.77591
G1 X29.584 Y61.600 E1.89435
G1 X29.577 Y62.483 E1.94050
G1 X25.396 Y62.483 E2.15895
G1 X25.396 Y61.869 E2.19106
G1 X28.109 Y61.869 E2.33283
G1 X28.782 Y59.749 E2.44902
G1 X29.420 Y58.704 E2.51296
G1 X30.662 Y57.746 E2.59493
G1 X31.579 Y57.519 E2.64428
G1 X32.242 Y57.656 E2.67964
G1 X32.712 Y58.047 E2.71158
G1 X33.056 Y58.855 E2.75747
G1 X33.235 Y61.809 E2.91207
G1 X33.703 Y61.376 F7200.000
G1 X39.042 Y61.376 E3.07059 F1536.860
M106 S255
G1 X39.306 Y61.376 E3.08439 F3600.000
G1 X39.306 Y61.976 E3.11573
M106 S255
G1 X39.306 Y62.376 E3.12761 F1536.860
G1 X83.459 Y62.376 E4.43856
G1 X83.459 Y61.376 E4.46825
G1 X86.284 Y61.376 E4.55216
G1 X86.259 Y60.600 E4.57522
G1 X86.389 Y59.076 E4.62063
M106 S255
G1 X86.421 Y58.706 E4.64002 F3600.000
G1 X86.845 Y57.716 E4.69632
G1 X87.503 Y57.169 E4.74099
G1 X88.395 Y56.974 E4.78870
G1 X89.535 Y57.256 E4.85005
G1 X89.816 Y57.409 E4.86678
G1 X89.935 Y57.507 E4.87484
M106 S255
G1 X90.930 Y58.336 E4.91329 F1536.860
M106 S255
G1 X91.017 Y58.453 E4.92093 F3600.000
M106 S255
G1 X91.681 Y59.541 E4.95875 F1536.860
G1 X92.272 Y61.376 E5.01601
G1 X95.949 Y61.376 E5.12519
M106 S255
G1 X96.431 Y61.376 E5.15039 F3600.000
G1 X96.431 Y61.976 E5.18173
M106 S255
G1 X96.431 Y62.376 E5.19361 F1536.860
G1 X103.037 Y62.376 E5.38973
M106 S255
G1 X103.060 Y62.376 E5.39094 F3600.000
G1 X103.060 Y62.976 E5.42228
G1 X103.037 Y62.976 E5.42349
M106 S255
G1 X99.911 Y62.976 E5.51628 F1536.860
G1 X98.721 Y63.066 E5.55173
G1 X98.087 Y62.976 E5.57074
G1 X90.346 Y62.976 E5.80057
G1 X90.346 Y61.976 E5.83026
G1 X89.901 Y61.976 E5.84349
G1 X89.082 Y60.648 E5.88981
G1 X88.672 Y61.976 E5.93109
G1 X88.202 Y61.976 E5.94503
G1 X88.202 Y62.976 E5.97472
G1 X41.973 Y62.976 E7.34731
G1 X41.000 Y63.074 E7.37635
G1 X40.027 Y62.976 E7.40540
G1 X31.314 Y62.976 E7.66409
G1 X31.257 Y61.534 E7.70696
G1 X30.074 Y61.950 E7.74418
G1 X30.066 Y62.976 E7.77465
G1 X16.963 Y62.976 E8.16368
M106 S255
G1 X16.940 Y62.976 E8.16488 F3600.000
G1 X16.940 Y62.376 E8.19623
G1 X16.963 Y62.376 E8.19743
M106 S255
G1 X24.903 Y62.376 E8.43317 F1536.860
G1 X24.903 Y61.376 E8.46286
G1 X27.749 Y61.376 E8.54736
G1 X28.331 Y59.544 E8.60445
G1 X28.943 Y58.540 E8.63935
M106 S255
G1 X29.046 Y58.370 E8.64976 F3600.000
G1 X29.105 Y58.325 E8.65362
M106 S255
G1 X30.186 Y57.491 E8.69415 F1536.860
M106 S255
G1 X30.443 Y57.293 E8.71111 F3600.000
G1 X31.569 Y57.014 E8.77172
G1 X32.462 Y57.199 E8.81936
G1 X33.118 Y57.744 E8.86395
G1 X33.542 Y58.740 E8.92052
G1 X33.564 Y59.097 E8.93917
M106 S255
